svg/fluentui-system-icons/ic_fluent_person_starburst_24_regular.svg

<svg width="24" height="24" viewBox="0 0 24 24" fill="none" xmlns="http://www.w3.org/2000/svg">
<path d="M10.1086 3.22066C10.8443 1.59311 13.1557 1.59312 13.8914 3.22066C14.0411 3.55183 14.4564 3.66312 14.7517 3.45117C16.2026 2.40955 18.2043 3.5652 18.0277 5.34256C17.9917 5.70422 18.2958 6.00827 18.6574 5.97233C20.4348 5.79573 21.5905 7.79738 20.5488 9.24832C20.3369 9.54356 20.4482 9.9589 20.7793 10.1086C22.4069 10.8443 22.4069 13.1557 20.7793 13.8914C20.4482 14.0411 20.3369 14.4564 20.5488 14.7517C21.5905 16.2026 20.4348 18.2043 18.6574 18.0277C18.2958 17.9917 17.9917 18.2958 18.0277 18.6574C18.2043 20.4348 16.2026 21.5905 14.7517 20.5488C14.4564 20.3369 14.0411 20.4482 13.8914 20.7793C13.1557 22.4069 10.8443 22.4069 10.1086 20.7793C9.9589 20.4482 9.54356 20.3369 9.24832 20.5488C7.79738 21.5905 5.79573 20.4348 5.97233 18.6574C6.00827 18.2958 5.70422 17.9917 5.34256 18.0277C3.5652 18.2043 2.40955 16.2026 3.45117 14.7517C3.66312 14.4564 3.55183 14.0411 3.22066 13.8914C1.59311 13.1557 1.59312 10.8443 3.22066 10.1086C3.55183 9.9589 3.66312 9.54356 3.45117 9.24832C2.40955 7.79738 3.5652 5.79573 5.34256 5.97233C5.70422 6.00827 6.00827 5.70422 5.97233 5.34256C5.79573 3.5652 7.79738 2.40955 9.24832 3.45117C9.54356 3.66312 9.9589 3.55182 10.1086 3.22066ZM12.5246 3.83854C12.3205 3.38715 11.6795 3.38715 11.4754 3.83854C10.9356 5.03262 9.43807 5.43389 8.37356 4.66969C7.97115 4.3808 7.416 4.70131 7.46498 5.19425C7.59455 6.49825 6.49825 7.59455 5.19425 7.46498C4.70131 7.416 4.3808 7.97115 4.66969 8.37356C5.43389 9.43807 5.03262 10.9356 3.83854 11.4754C3.38715 11.6795 3.38715 12.3205 3.83854 12.5246C5.03262 13.0644 5.43389 14.5619 4.66969 15.6264C4.3808 16.0289 4.70131 16.584 5.19425 16.535C6.49825 16.4054 7.59455 17.5017 7.46498 18.8057C7.416 19.2987 7.97115 19.6192 8.37356 19.3303C9.43807 18.5661 10.9356 18.9674 11.4754 20.1615C11.6795 20.6128 12.3205 20.6128 12.5246 20.1615C13.0644 18.9674 14.5619 18.5661 15.6264 19.3303C16.0289 19.6192 16.584 19.2987 16.535 18.8057C16.4054 17.5017 17.5017 16.4054 18.8057 16.535C19.2987 16.584 19.6192 16.0289 19.3303 15.6264C18.5661 14.5619 18.9674 13.0644 20.1615 12.5246C20.6128 12.3205 20.6128 11.6795 20.1615 11.4754C18.9674 10.9356 18.5661 9.43807 19.3303 8.37356C19.6192 7.97115 19.2987 7.416 18.8057 7.46498C17.5017 7.59455 16.4054 6.49825 16.535 5.19425C16.584 4.70131 16.0289 4.3808 15.6264 4.66969C14.5619 5.43389 13.0644 5.03262 12.5246 3.83854ZM12 5.965C10.6668 5.965 9.58599 7.04578 9.58599 8.37899C9.58599 9.71221 10.6668 10.793 12 10.793C13.3332 10.793 14.414 9.71221 14.414 8.37899C14.414 7.04578 13.3332 5.965 12 5.965ZM15.0175 12L8.98247 12C7.98257 12 7.172 12.8106 7.172 13.8105C7.172 15.1576 7.72597 16.2369 8.63506 16.9666C9.52977 17.6847 10.7289 18.035 12 18.035C13.2711 18.035 14.4702 17.6847 15.3649 16.9666C16.274 16.2369 16.828 15.1576 16.828 13.8105C16.828 12.8106 16.0174 12 15.0175 12Z" fill="#212121"/>
</svg>

<svg xmlns="http://www.w3.org/2000/svg" width="24" height="24"><path d="M10.109 3.22c.735-1.627 3.047-1.627 3.782 0 .15.332.565.443.86.231 1.452-1.041 3.453.114 3.277 1.892a.576.576 0 0 0 .63.63c1.777-.177 2.932 1.824 1.89 3.275-.211.296-.1.71.231.86 1.628.736 1.628 3.048 0 3.783a.576.576 0 0 0-.23.86c1.041 1.452-.114 3.453-1.892 3.277a.576.576 0 0 0-.63.63c.177 1.777-1.824 2.932-3.275 1.89a.576.576 0 0 0-.86.231c-.736 1.628-3.048 1.628-3.783 0a.576.576 0 0 0-.86-.23c-1.452 1.041-3.453-.114-3.277-1.892a.576.576 0 0 0-.63-.63c-1.777.177-2.932-1.824-1.89-3.275a.576.576 0 0 0-.231-.86c-1.628-.736-1.628-3.048 0-3.783a.576.576 0 0 0 .23-.86c-1.041-1.452.114-3.453 1.892-3.277a.576.576 0 0 0 .63-.63c-.177-1.777 1.824-2.932 3.275-1.89.296.211.71.1.86-.231Zm2.416.619a.576.576 0 0 0-1.05 0 2.076 2.076 0 0 1-3.101.83.576.576 0 0 0-.909.525 2.076 2.076 0 0 1-2.27 2.271.576.576 0 0 0-.525.909 2.076 2.076 0 0 1-.831 3.101.576.576 0 0 0 0 1.05 2.076 2.076 0 0 1 .83 3.101.576.576 0 0 0 .525.909c1.304-.13 2.4.967 2.271 2.27a.576.576 0 0 0 .909.525 2.076 2.076 0 0 1 3.101.832.576.576 0 0 0 1.05 0 2.076 2.076 0 0 1 3.101-.832.576.576 0 0 0 .909-.524 2.076 2.076 0 0 1 2.27-2.271.576.576 0 0 0 .525-.909 2.076 2.076 0 0 1 .832-3.101.576.576 0 0 0 0-1.05 2.076 2.076 0 0 1-.832-3.101.576.576 0 0 0-.524-.909 2.076 2.076 0 0 1-2.271-2.27.576.576 0 0 0-.909-.525 2.076 2.076 0 0 1-3.101-.831ZM12 5.965a2.414 2.414 0 1 0 0 4.828 2.414 2.414 0 0 0 0-4.828ZM15.018 12H8.982c-1 0-1.81.81-1.81 1.81 0 1.348.554 2.427 1.463 3.157.895.718 2.094 1.068 3.365 1.068 1.271 0 2.47-.35 3.365-1.068.909-.73 1.463-1.81 1.463-3.156 0-1-.81-1.811-1.81-1.811Z"/></svg>
